public/cloud-icons/azure/compute/vm-image-definition.svg

<?xml version="1.0" encoding="UTF-8" standalone="no"?>
<!-- Generated by Microsoft Visio, SVG Export VM Image Definition.svg Page-1 -->

<svg
   xmlns:dc="http://purl.org/dc/elements/1.1/"
   xmlns:cc="http://creativecommons.org/ns#"
   xmlns:rdf="http://www.w3.org/1999/02/22-rdf-syntax-ns#"
   xmlns:svg="http://www.w3.org/2000/svg"
   xmlns="http://www.w3.org/2000/svg"
   xmlns:sodipodi="http://sodipodi.sourceforge.net/DTD/sodipodi-0.dtd"
   xmlns:inkscape="http://www.inkscape.org/namespaces/inkscape"
   width="56.695156"
   height="53.850006"
   viewBox="0 0 56.695156 53.850006"
   xml:space="preserve"
   class="st7"
   version="1.1"
   id="svg70"
   sodipodi:docname="VM Image Definition.svg"
   style="font-size:12px;overflow:visible;color-interpolation-filters:sRGB;fill:none;fill-rule:evenodd;stroke-linecap:square;stroke-miterlimit:3"
   inkscape:version="0.92.5 (2060ec1f9f, 2020-04-08)"><metadata
   id="metadata74"><rdf:RDF><cc:Work
       rdf:about=""><dc:format>image/svg+xml</dc:format><dc:type
         rdf:resource="http://purl.org/dc/dcmitype/StillImage" /></cc:Work></rdf:RDF></metadata><sodipodi:namedview
   pagecolor="#ffffff"
   bordercolor="#666666"
   borderopacity="1"
   objecttolerance="10"
   gridtolerance="10"
   guidetolerance="10"
   inkscape:pageopacity="0"
   inkscape:pageshadow="2"
   inkscape:window-width="640"
   inkscape:window-height="480"
   id="namedview72"
   showgrid="false"
   inkscape:zoom="1.9364261"
   inkscape:cx="28.3465"
   inkscape:cy="26.917303"
   inkscape:window-x="0"
   inkscape:window-y="0"
   inkscape:window-maximized="0"
   inkscape:current-layer="svg70" />
	<style
   type="text/css"
   id="style2">
	<![CDATA[
		.st1 {fill:url(#grad0-6);stroke:none;stroke-linecap:butt;stroke-width:34}
		.st2 {fill:url(#grad0-10);stroke:none;stroke-linecap:butt;stroke-width:34}
		.st3 {fill:url(#grad0-14);stroke:none;stroke-linecap:butt;stroke-width:34}
		.st4 {fill:#50e6ff;stroke:none;stroke-linecap:butt;stroke-width:34}
		.st5 {fill:#c3f1ff;stroke:none;stroke-linecap:butt;stroke-width:34}
		.st6 {fill:#9cebff;stroke:none;stroke-linecap:butt;stroke-width:34}
		.st7 {fill:none;fill-rule:evenodd;font-size:12px;overflow:visible;stroke-linecap:square;stroke-miterlimit:3}
	]]>
	</style>

	<defs
   id="Patterns_And_Gradients">
		<linearGradient
   id="grad0-6"
   x1="-4.1983382e-05"
   y1="73.533636"
   x2="47.258131"
   y2="73.533636"
   gradientTransform="scale(0.99115294,1.008926)"
   gradientUnits="userSpaceOnUse">
			<stop
   offset="0"
   stop-color="#999999"
   stop-opacity="1"
   id="stop4" />
			<stop
   offset="1"
   stop-color="#767676"
   stop-opacity="1"
   id="stop6" />
		</linearGradient>
		<linearGradient
   id="grad0-10"
   x1="0"
   y1="98.509431"
   x2="22.277506"
   y2="98.509431"
   gradientTransform="scale(0.99108042,1.0089999)"
   gradientUnits="userSpaceOnUse">
			<stop
   offset="0"
   stop-color="#b3b3b3"
   stop-opacity="1"
   id="stop9" />
			<stop
   offset="1"
   stop-color="#999999"
   stop-opacity="1"
   id="stop11" />
		</linearGradient>
		<linearGradient
   id="grad0-14"
   x1="0"
   y1="54.341734"
   x2="43.021213"
   y2="54.341734"
   gradientTransform="scale(0.79890821,1.2517082)"
   gradientUnits="userSpaceOnUse">
			<stop
   offset="0"
   stop-color="#0078d4"
   stop-opacity="1"
   id="stop14" />
			<stop
   offset="1"
   stop-color="#005ba1"
   stop-opacity="1"
   id="stop16" />
		</linearGradient>
	</defs>
	<g
   id="g68"
   transform="translate(-34,-34.004297)">
		<title
   id="title20">Page-1</title>
		<g
   id="group11476-1"
   transform="translate(34,-34.0157)">
			<title
   id="title22">VM Image Definition.11476</title>
			<g
   id="group11477-2">
				<title
   id="title24">Sheet.11477</title>
				<g
   id="shape11478-3"
   transform="translate(9.85512,-3.14027)">
					<title
   id="title26">Sheet.11478</title>
					<path
   d="m 46.84,98.05 a 23.5118,23.8961 0 0 1 -1.32,7.9 24.8693,25.2758 0 0 1 -0.6,1.55 22.3811,22.7469 0 0 1 -1.19,2.42 23.4614,23.8449 0 0 1 -14.63,11.27 h -0.05 l -0.19,0.05 -0.1,0.02 a 22.9102,23.2847 0 0 1 -2.84,0.49 20.3276,20.6598 0 0 1 -1.39,0.1 h -0.26 c -0.28,0 -0.56,0.02 -0.84,0.02 A 23.4331,23.8161 0 0 1 1.15,105.45 22.9543,23.3295 0 0 1 0.37,102.24 23.4173,23.8001 0 0 1 0,98.03 23.6882,24.0754 0 0 1 0.33,93.98 23.4394,23.8225 0 0 1 23.42,74.19 c 0.36,0 0.73,0 1.09,0.02 a 23.4425,23.8257 0 0 1 22.33,23.84 z"
   class="st1"
   id="path28"
   inkscape:connector-curvature="0"
   style="fill:url(#grad0-6);stroke:none;stroke-width:34;stroke-linecap:butt" />
				</g>
				<g
   id="shape11479-7"
   transform="translate(22.2331,-15.7269)">
					<title
   id="title31">Sheet.11479</title>
					<ellipse
   cx="11.0394"
   cy="110.635"
   rx="11.0394"
   ry="11.239"
   class="st2"
   id="ellipse33"
   style="fill:url(#grad0-10);stroke:none;stroke-width:34;stroke-linecap:butt" />
				</g>
				<g
   id="shape11480-11">
					<title
   id="title36">Sheet.11480</title>
					<path
   d="m 0,120.19 a 1.65673,1.68381 -180 0 0 1.66,1.68 h 31.05 a 1.65673,1.68381 -180 0 0 1.66,-1.68 V 69.7 A 1.65673,1.68381 -180 0 0 32.71,68.02 H 1.66 A 1.65673,1.68381 -180 0 0 0,69.7 Z"
   class="st3"
   id="path38"
   inkscape:connector-curvature="0"
   style="fill:url(#grad0-14);stroke:none;stroke-width:34;stroke-linecap:butt" />
				</g>
				<g
   id="shape11481-15"
   transform="translate(17.1969,-15.8966)">
					<title
   id="title41">Sheet.11481</title>
					<path
   d="M 9.25,105.28 9.32,116.29 0.07,121.87 0,110.84 Z"
   class="st4"
   id="path43"
   inkscape:connector-curvature="0"
   style="fill:#50e6ff;stroke:none;stroke-width:34;stroke-linecap:butt" />
				</g>
				<g
   id="shape11482-17"
   transform="translate(7.85827,-26.9083)">
					<title
   id="title46">Sheet.11482</title>
					<path
   d="M 18.59,116.29 9.34,121.87 0,116.4 9.28,110.81 Z"
   class="st5"
   id="path48"
   inkscape:connector-curvature="0"
   style="fill:#c3f1ff;stroke:none;stroke-width:34;stroke-linecap:butt" />
				</g>
				<g
   id="shape11483-19"
   transform="translate(7.85827,-15.8966)">
					<title
   id="title51">Sheet.11483</title>
					<path
   d="M 9.34,110.86 9.4,121.87 0.07,116.4 0,105.39 Z"
   class="st6"
   id="path53"
   inkscape:connector-curvature="0"
   style="fill:#9cebff;stroke:none;stroke-width:34;stroke-linecap:butt" />
				</g>
				<g
   id="shape11484-21"
   transform="translate(7.92441,-15.8966)">
					<title
   id="title56">Sheet.11484</title>
					<path
   d="m 0,116.4 9.27,-5.56 0.07,11.03 z"
   class="st5"
   id="path58"
   inkscape:connector-curvature="0"
   style="fill:#c3f1ff;stroke:none;stroke-width:34;stroke-linecap:butt" />
				</g>
				<g
   id="shape11485-23"
   transform="translate(17.1969,-15.8966)">
					<title
   id="title61">Sheet.11485</title>
					<path
   d="M 9.32,116.29 0,110.84 0.07,121.87 Z"
   class="st6"
   id="path63"
   inkscape:connector-curvature="0"
   style="fill:#9cebff;stroke:none;stroke-width:34;stroke-linecap:butt" />
				</g>
			</g>
		</g>
	</g>
</svg>

<svg xmlns="http://www.w3.org/2000/svg" xml:space="preserve" width="56.695" height="53.85" style="font-size:12px;overflow:visible;color-interpolation-filters:sRGB;fill-rule:evenodd;stroke-linecap:square;stroke-miterlimit:3" viewBox="0 0 56.695 53.85"><defs><linearGradient id="a" x1="0" x2="47.258" y1="73.534" y2="73.534" gradientTransform="scale(.99115 1.00893)" gradientUnits="userSpaceOnUse"><stop offset="0" stop-color="#999"/><stop offset="1" stop-color="#767676"/></linearGradient><linearGradient id="b" x1="0" x2="22.278" y1="98.509" y2="98.509" gradientTransform="scale(.99108 1.009)" gradientUnits="userSpaceOnUse"><stop offset="0" stop-color="#b3b3b3"/><stop offset="1" stop-color="#999"/></linearGradient><linearGradient id="c" x1="0" x2="43.021" y1="54.342" y2="54.342" gradientTransform="scale(.7989 1.2517)" gradientUnits="userSpaceOnUse"><stop offset="0" stop-color="#0078d4"/><stop offset="1" stop-color="#005ba1"/></linearGradient></defs><g transform="translate(-34 -34.004)"><title>Page-1</title><g transform="translate(34 -34.016)"><title>VM Image Definition.11476</title><title>Sheet.11477</title><g transform="translate(9.855 -3.14)"><title>Sheet.11478</title><path d="M46.84 98.05a23.512 23.896 0 0 1-1.32 7.9 24.87 25.276 0 0 1-.6 1.55 22.381 22.747 0 0 1-1.19 2.42 23.461 23.845 0 0 1-14.63 11.27h-.05l-.19.05-.1.02a22.91 23.285 0 0 1-2.84.49 20.328 20.66 0 0 1-1.39.1h-.26c-.28 0-.56.02-.84.02a23.433 23.816 0 0 1-22.28-16.42 22.954 23.33 0 0 1-.78-3.21A23.417 23.8 0 0 1 0 98.03a23.688 24.075 0 0 1 .33-4.05 23.44 23.823 0 0 1 23.09-19.79c.36 0 .73 0 1.09.02a23.443 23.826 0 0 1 22.33 23.84" style="fill:url(#a);stroke:none;stroke-width:34;stroke-linecap:butt"/></g><g transform="translate(22.233 -15.727)"><title>Sheet.11479</title><ellipse cx="11.039" cy="110.635" rx="11.039" ry="11.239" style="fill:url(#b);stroke:none;stroke-width:34;stroke-linecap:butt"/></g><title>Sheet.11480</title><path d="M0 120.19a1.657 1.684-180 0 0 1.66 1.68h31.05a1.657 1.684-180 0 0 1.66-1.68V69.7a1.657 1.684-180 0 0-1.66-1.68H1.66A1.657 1.684-180 0 0 0 69.7Z" style="fill:url(#c);stroke:none;stroke-width:34;stroke-linecap:butt"/><g transform="translate(17.197 -15.897)"><title>Sheet.11481</title><path d="m9.25 105.28.07 11.01-9.25 5.58L0 110.84Z" style="fill:#50e6ff;stroke:none;stroke-width:34;stroke-linecap:butt"/></g><g transform="translate(7.858 -26.908)"><title>Sheet.11482</title><path d="m18.59 116.29-9.25 5.58L0 116.4l9.28-5.59Z" style="fill:#c3f1ff;stroke:none;stroke-width:34;stroke-linecap:butt"/></g><g transform="translate(7.858 -15.897)"><title>Sheet.11483</title><path d="m9.34 110.86.06 11.01-9.33-5.47L0 105.39Z" style="fill:#9cebff;stroke:none;stroke-width:34;stroke-linecap:butt"/></g><g transform="translate(7.924 -15.897)"><title>Sheet.11484</title><path d="m0 116.4 9.27-5.56.07 11.03z" style="fill:#c3f1ff;stroke:none;stroke-width:34;stroke-linecap:butt"/></g><g transform="translate(17.197 -15.897)"><title>Sheet.11485</title><path d="M9.32 116.29 0 110.84l.07 11.03Z" style="fill:#9cebff;stroke:none;stroke-width:34;stroke-linecap:butt"/></g></g></g></svg>
